!!!OTL: MAEDCHEN MIT DEM GRUENEN KRANZE
!!!ARE: Europa, Mitteleuropa, Deutschland
!!!SCT: F0791
!!!YEM: Copyright 1995, estate of Helmut Schaffrath.
**kern
*ICvox
*Ivox
*M2/4
*k[f#c#g#d#]
*E:
=1
{4.B
8e
=2
8f#
8e
8d#
8e
=3
4.f#
8g#
=4
4e
4r}
=5
{4.B
8e
=6
8f#
8e
8d#
8e
=7
4.f#
8g#
=8
4e
4r}
=9
{8e
8e
8d#
8e
=10
4f#
4g#
=11
2f#
=12
4d#
4r}
=13
{8e
8e
8f#
8e
=14
4d#
4c#
=15
[2B
=16
4B]
4r}
=17
{8f#
8f#
8f#
8f#
=18
4f#
4g#
=19
2a
=20
4e
4r}
=21
{8e
8e
8e
8e
=22
4e
4f#
=23
2g#
=24
4d#
4r}
=25
{4e
4e
=26
4.f#
8B
=27
4e
4e
=28
4f#
4r}
=29
{4e
8f#
8g#
=30
4a
4g#
=31
4f#
4d#
=32
4e
4r}
=33
{4e
4e
=34
4.f#
8B
=35
4e
4e
=36
4f#
4r}
=37
{4e
8f#
8g#
=38
4a
4g#
=39
4f#
4d#
=40
4e
4r}
==
!!!AGN: Geselligkeits -, Tanz -, Soldaten - Lied
!!!ONB: ESAC (Essen Associative Code) Database: FINK
!!!AMT: simple duple
!!!AIN: vox
!!!EED: Helmut Schaffrath
!!!EEV: 1.0
*-
